X:606
T: HOFFNUNG KOMM NUR BALD
N: E0562
O: Europa, Mitteleuropa, Deutschland, Coburg
R: Liebes - Lied
M: 4/4
L: 1/8
K: F
F3G | A2A2G2G2 | F2z2
A3B | c2c2B2B2 | A2z2
c2c2 | d2dcB2Bd | c2z2
A2A2 | B2BBG2G2 | F2z2
c2c2 | d2dcB2Bd | c2z2
A2A2 | B2BBG2G2 | F2z2

